public/icons/social/pdf.svg

<svg xmlns="http://www.w3.org/2000/svg" viewBox="0 0 64 64" fill="#ffffff" stroke="#ffffff">
    <path d="M 17.65625 4 C 16.320313 4 15.066406 4.519531 14.121094 5.464844 L 5.464844 14.121094 C 4.519531 15.066406 4 16.320313 4 17.65625 L 4 57 C 4 58.652344 5.347656 60 7 60 L 47 60 C 48.652344 60 50 58.652344 50 57 L 50 46 L 58 46 C 59.101563 46 60 45.101563 60 44 L 60 24 C 60 22.898438 59.101563 22 58 22 L 50 22 L 50 7 C 50 5.347656 48.652344 4 47 4 Z M 18 6 L 47 6 C 47.550781 6 48 6.449219 48 7 L 48 22 L 16 22 C 14.898438 22 14 22.898438 14 24 L 14 44 C 14 45.101563 14.898438 46 16 46 L 48 46 L 48 57 C 48 57.550781 47.550781 58 47 58 L 7 58 C 6.449219 58 6 57.550781 6 57 L 6 18 L 15 18 C 16.652344 18 18 16.652344 18 15 Z M 16 6.5 L 16 15 C 16 15.550781 15.550781 16 15 16 L 6.5 16 C 6.609375 15.835938 6.734375 15.679688 6.878906 15.535156 L 15.535156 6.878906 C 15.679688 6.734375 15.835938 6.609375 16 6.5 Z M 16 24 L 58 24 L 58 44 L 16 44 Z M 25 28 C 24.445313 28 24 28.449219 24 29 L 24 39 C 24 39.550781 24.445313 40 25 40 C 25.554688 40 26 39.550781 26 39 L 26 36 L 29 36 C 30.652344 36 32 34.652344 32 33 L 32 31 C 32 29.347656 30.652344 28 29 28 Z M 35 28 C 34.445313 28 34 28.449219 34 29 L 34 39 C 34 39.550781 34.445313 40 35 40 L 38 40 C 40.207031 40 42 38.207031 42 36 L 42 32 C 42 29.792969 40.207031 28 38 28 Z M 45 28 C 44.445313 28 44 28.449219 44 29 L 44 39 C 44 39.550781 44.445313 40 45 40 C 45.554688 40 46 39.550781 46 39 L 46 36 L 49 36 C 49.554688 36 50 35.550781 50 35 C 50 34.449219 49.554688 34 49 34 L 46 34 L 46 30 L 50 30 C 50.554688 30 51 29.550781 51 29 C 51 28.449219 50.554688 28 50 28 Z M 26 30 L 29 30 C 29.550781 30 30 30.449219 30 31 L 30 33 C 30 33.550781 29.550781 34 29 34 L 26 34 Z M 36 30 L 38 30 C 39.101563 30 40 30.898438 40 32 L 40 36 C 40 37.101563 39.101563 38 38 38 L 36 38 Z M 9 52 C 8.445313 52 8 52.449219 8 53 L 8 55 C 8 55.550781 8.445313 56 9 56 C 9.554688 56 10 55.550781 10 55 L 10 53 C 10 52.449219 9.554688 52 9 52 Z M 14 52 C 13.445313 52 13 52.449219 13 53 L 13 55 C 13 55.550781 13.445313 56 14 56 C 14.554688 56 15 55.550781 15 55 L 15 53 C 15 52.449219 14.554688 52 14 52 Z M 19 52 C 18.445313 52 18 52.449219 18 53 L 18 55 C 18 55.550781 18.445313 56 19 56 C 19.554688 56 20 55.550781 20 55 L 20 53 C 20 52.449219 19.554688 52 19 52 Z M 24 52 C 23.445313 52 23 52.449219 23 53 L 23 55 C 23 55.550781 23.445313 56 24 56 C 24.554688 56 25 55.550781 25 55 L 25 53 C 25 52.449219 24.554688 52 24 52 Z M 29 52 C 28.445313 52 28 52.449219 28 53 L 28 55 C 28 55.550781 28.445313 56 29 56 C 29.554688 56 30 55.550781 30 55 L 30 53 C 30 52.449219 29.554688 52 29 52 Z M 34 52 C 33.445313 52 33 52.449219 33 53 L 33 55 C 33 55.550781 33.445313 56 34 56 C 34.554688 56 35 55.550781 35 55 L 35 53 C 35 52.449219 34.554688 52 34 52 Z M 39 52 C 38.445313 52 38 52.449219 38 53 L 38 55 C 38 55.550781 38.445313 56 39 56 C 39.554688 56 40 55.550781 40 55 L 40 53 C 40 52.449219 39.554688 52 39 52 Z M 44 52 C 43.445313 52 43 52.449219 43 53 L 43 55 C 43 55.550781 43.445313 56 44 56 C 44.554688 56 45 55.550781 45 55 L 45 53 C 45 52.449219 44.554688 52 44 52 Z"></path>
</svg>

<svg xmlns="http://www.w3.org/2000/svg" viewBox="0 0 64 64" fill="#fff" stroke="#fff" stroke-width="0.5"><path d="M17.6563 4c-1.336 0-2.5899.5195-3.5352 1.4648l-8.6563 8.6563C4.5195 15.0664 4 16.3203 4 17.6562V57c0 1.6523 1.3477 3 3 3h40c1.6523 0 3-1.3477 3-3V46h8c1.1016 0 2-.8984 2-2V24c0-1.1016-.8984-2-2-2h-8V7c0-1.6523-1.3477-3-3-3zM18 6h29c.5508 0 1 .4492 1 1v15H16c-1.1016 0-2 .8984-2 2v20c0 1.1016.8984 2 2 2h32v11c0 .5508-.4492 1-1 1H7c-.5508 0-1-.4492-1-1V18h9c1.6523 0 3-1.3477 3-3zm-2 .5V15c0 .5508-.4492 1-1 1H6.5a3.0354 3.0354 0 01.379-.4648l8.6562-8.6563A3.0354 3.0354 0 0116 6.5zM16 24h42v20H16zm9 4c-.5547 0-1 .4492-1 1v10c0 .5508.4453 1 1 1s1-.4492 1-1v-3h3c1.6523 0 3-1.3477 3-3v-2c0-1.6523-1.3477-3-3-3zm10 0c-.5547 0-1 .4492-1 1v10c0 .5508.4453 1 1 1h3c2.207 0 4-1.793 4-4v-4c0-2.207-1.793-4-4-4zm10 0c-.5547 0-1 .4492-1 1v10c0 .5508.4453 1 1 1s1-.4492 1-1v-3h3c.5547 0 1-.4492 1-1s-.4453-1-1-1h-3v-4h4c.5547 0 1-.4492 1-1s-.4453-1-1-1zm-19 2h3c.5508 0 1 .4492 1 1v2c0 .5508-.4492 1-1 1h-3zm10 0h2c1.1016 0 2 .8984 2 2v4c0 1.1016-.8984 2-2 2h-2zM9 52c-.5547 0-1 .4492-1 1v2c0 .5508.4453 1 1 1s1-.4492 1-1v-2c0-.5508-.4453-1-1-1zm5 0c-.5547 0-1 .4492-1 1v2c0 .5508.4453 1 1 1s1-.4492 1-1v-2c0-.5508-.4453-1-1-1zm5 0c-.5547 0-1 .4492-1 1v2c0 .5508.4453 1 1 1s1-.4492 1-1v-2c0-.5508-.4453-1-1-1zm5 0c-.5547 0-1 .4492-1 1v2c0 .5508.4453 1 1 1s1-.4492 1-1v-2c0-.5508-.4453-1-1-1zm5 0c-.5547 0-1 .4492-1 1v2c0 .5508.4453 1 1 1s1-.4492 1-1v-2c0-.5508-.4453-1-1-1zm5 0c-.5547 0-1 .4492-1 1v2c0 .5508.4453 1 1 1s1-.4492 1-1v-2c0-.5508-.4453-1-1-1zm5 0c-.5547 0-1 .4492-1 1v2c0 .5508.4453 1 1 1s1-.4492 1-1v-2c0-.5508-.4453-1-1-1zm5 0c-.5547 0-1 .4492-1 1v2c0 .5508.4453 1 1 1s1-.4492 1-1v-2c0-.5508-.4453-1-1-1z"/></svg>
